packages/ui-icons/svg/Solid/timer.svg

<svg viewBox="0 0 1920 1920" version="1.1" xmlns="http://www.w3.org/2000/svg">
    <path d="M960,0 C1489.69412,0 1920,430.305882 1920,960 C1920,1489.69412 1489.69412,1920 960,1920 C430.305882,1920 0,1489.69412 0,960 C0,787.2 46.3058824,617.788235 134.4,470.964706 L134.4,470.964706 L169.411765,412.235294 L198.776471,438.211765 L633.6,873.035294 C625.694118,900.141176 621.176471,929.505882 621.176471,960 C621.176471,1146.35294 773.647059,1298.82353 960,1298.82353 C1146.35294,1298.82353 1298.82353,1146.35294 1298.82353,960 C1298.82353,773.647059 1146.35294,621.176471 960,621.176471 C940.8,621.176471 921.6,623.435294 903.529412,626.823529 L903.529412,626.823529 L903.529412,0 Z M322.334118,242.371765 L845.929412,766.08 C879.585882,746.315294 918.211765,734.117647 960,734.117647 C1084.57412,734.117647 1185.88235,835.425882 1185.88235,960 C1185.88235,1084.57412 1084.57412,1185.88235 960,1185.88235 C835.425882,1185.88235 734.117647,1084.57412 734.117647,960 C734.117647,918.211765 746.315294,879.585882 766.08,845.929412 L766.08,845.929412 L242.371765,322.334118 L322.334118,242.371765 Z" stroke="none" stroke-width="1" fill-rule="evenodd"/>
</svg>

<svg viewBox="0 0 1920 1920" version="1.1" xmlns="http://www.w3.org/2000/svg">
    <path d="M960 0c529.694 0 960 430.306 960 960s-430.306 960-960 960S0 1489.694 0 960c0-172.8 46.306-342.212 134.4-489.035l35.012-58.73 29.364 25.977L633.6 873.035A311.165 311.165 0 0 0 621.176 960c0 186.353 152.471 338.824 338.824 338.824S1298.824 1146.353 1298.824 960 1146.353 621.176 960 621.176c-19.2 0-38.4 2.26-56.47 5.648V0H960zM734.118 960c0-41.788 12.197-80.414 31.962-114.07L242.372 322.333l79.962-79.962L845.93 766.08c33.657-19.765 72.283-31.962 114.071-31.962 124.574 0 225.882 101.308 225.882 225.882S1084.574 1185.882 960 1185.882 734.118 1084.574 734.118 960z" stroke="none" stroke-width="1" fill-rule="evenodd"/>
</svg>
